storage/app/icons/phosphoricons/duotone/mouse-left-click-duotone.svg

<svg xmlns="http://www.w3.org/2000/svg" fill="currentColor" viewBox="0 0 256 256"><path d="M128 24v88H56V80a56 56 0 0 1 56-56Z" opacity=".2"/><path d="M144 16h-32a64.07 64.07 0 0 0-64 64v96a64.07 64.07 0 0 0 64 64h32a64.07 64.07 0 0 0 64-64V80a64.07 64.07 0 0 0-64-64m48 64v24h-56V32h8a48.05 48.05 0 0 1 48 48m-76.69 24-46-46a48.5 48.5 0 0 1 11.2-14.18L120 83.31V104ZM64 80c0-1.51.08-3 .22-4.47L92.69 104H64Zm56-48v28.69L94.59 35.28A47.7 47.7 0 0 1 112 32Zm24 192h-32a48.05 48.05 0 0 1-48-48v-56h128v56a48.05 48.05 0 0 1-48 48"/></svg>

<svg xmlns="http://www.w3.org/2000/svg" viewBox="0 0 256 256" fill="currentColor"><path d="M128,24v88H56V80a56,56,0,0,1,56-56Z" opacity="0.2"/><path d="M144,16H112A64.07,64.07,0,0,0,48,80v96a64.07,64.07,0,0,0,64,64h32a64.07,64.07,0,0,0,64-64V80A64.07,64.07,0,0,0,144,16Zm48,64v24H136V32h8A48.05,48.05,0,0,1,192,80Zm-76.69,24-46-46A48.49,48.49,0,0,1,80.51,43.82L120,83.31V104ZM64,80c0-1.51.08-3,.22-4.47L92.69,104H64Zm56-48V60.69L94.59,35.28A47.73,47.73,0,0,1,112,32Zm24,192H112a48.05,48.05,0,0,1-48-48V120H192v56A48.05,48.05,0,0,1,144,224Z"/></svg>
